lib/brands/icons/adobe-animate.svg

<svg xmlns="http://www.w3.org/2000/svg" fill="none" aria-hidden="true" viewBox="0 0 48 48"><g id="adobe-animate-Icon"><g id="Group"><path id="bg" fill="#00005B" d="M6 19.0286C6 14.4681 6 12.1879 6.88752 10.4461C7.6682 8.9139 8.9139 7.6682 10.4461 6.88752C12.1879 6 14.4681 6 19.0286 6H28.9714C33.5319 6 35.8121 6 37.5539 6.88752C39.0861 7.6682 40.3318 8.9139 41.1125 10.4461C42 12.1879 42 14.4681 42 19.0286V28.9714C42 33.5319 42 35.8121 41.1125 37.5539C40.3318 39.0861 39.0861 40.3318 37.5539 41.1125C35.8121 42 33.5319 42 28.9714 42H19.0286C14.4681 42 12.1879 42 10.4461 41.1125C8.9139 40.3318 7.6682 39.0861 6.88752 37.5539C6 35.8121 6 33.5319 6 28.9714V19.0286Z"/><g id="Vector"><path fill="#9999FF" d="M19.9057 27.7308H14.3082L13.1693 31.4821C13.1377 31.6212 13.0135 31.7197 12.8785 31.7129H10.0434C9.88172 31.7129 9.82518 31.6189 9.87378 31.4308L14.7201 16.7207C14.7686 16.5668 14.817 16.4164 14.8655 16.2197C14.9289 15.8775 14.9614 15.5298 14.9624 15.1811C14.9486 15.0781 15.0347 14.9869 15.1321 15.0016H18.9849C19.0977 15.0016 19.1624 15.0443 19.1787 15.1298L24.6794 31.4564C24.7278 31.6275 24.6793 31.713 24.5339 31.7129H21.3838C21.2733 31.7258 21.1678 31.6477 21.1415 31.5334L19.9057 27.7308ZM15.1805 24.5679H19.0091C18.3801 22.35 17.6702 20.1612 17.0948 17.926C16.4428 20.2446 15.8408 22.3949 15.1805 24.5679Z"/><path fill="#9999FF" d="M26.2192 31.4344V21.8947C26.2192 21.6042 26.2151 21.2794 26.207 20.9202C26.1987 20.5612 26.1866 20.2193 26.1707 19.8944C26.1544 19.5699 26.1383 19.3134 26.1222 19.1251C26.0776 19.0042 26.1833 18.9111 26.2919 18.9199H28.812C29.2666 18.9041 29.3433 19.6041 29.3693 19.9714C29.8378 19.537 30.3807 19.2018 30.9686 18.9841C31.5531 18.7699 32.1675 18.6615 32.786 18.6635C33.2676 18.6659 33.7459 18.7481 34.2035 18.9071C34.7318 19.0859 35.2136 19.3921 35.6109 19.8015C36.0083 20.2109 36.3104 20.7124 36.4935 21.2664C36.7358 21.9248 36.8569 22.7753 36.8569 23.818V31.4344C36.8569 31.5883 36.7923 31.6652 36.6631 31.6652H33.731C33.5919 31.6863 33.4687 31.556 33.4887 31.4088V24.1258C33.5031 23.6785 33.4288 23.233 33.2706 22.8179C32.6353 21.244 30.57 21.5895 29.5874 22.5614V31.4344C29.5874 31.5883 29.5227 31.6652 29.3935 31.6652H26.4372C26.3121 31.6841 26.2013 31.5669 26.2192 31.4344Z"/></g></g></g></svg>

<svg xmlns="http://www.w3.org/2000/svg" fill="none" aria-hidden="true" viewBox="0 0 48 48"><path fill="#00005B" d="M6 19.029c0-4.56 0-6.841.888-8.583a8.143 8.143 0 0 1 3.558-3.558C12.188 6 14.468 6 19.03 6h9.942c4.56 0 6.841 0 8.583.888a8.143 8.143 0 0 1 3.558 3.558C42 12.188 42 14.468 42 19.03v9.942c0 4.56 0 6.841-.888 8.583a8.143 8.143 0 0 1-3.558 3.558C35.812 42 33.532 42 28.97 42h-9.94c-4.56 0-6.841 0-8.583-.888a8.143 8.143 0 0 1-3.558-3.558C6 35.812 6 33.532 6 28.97v-9.94Z"/><path fill="#99F" d="M19.906 27.73h-5.598l-1.139 3.752a.29.29 0 0 1-.29.23h-2.835c-.162 0-.219-.093-.17-.281l4.846-14.71c.049-.154.097-.305.146-.501a5.83 5.83 0 0 0 .097-1.039c-.014-.103.072-.194.17-.18h3.852c.113 0 .178.043.194.129l5.5 16.326c.05.172 0 .257-.145.257h-3.15a.228.228 0 0 1-.242-.18l-1.236-3.802Zm-4.725-3.162h3.828c-.629-2.218-1.339-4.407-1.914-6.642-.652 2.319-1.254 4.469-1.914 6.642Zm11.039 6.866v-9.54a43.57 43.57 0 0 0-.05-2 23.3 23.3 0 0 0-.048-.769c-.044-.12.062-.214.17-.205h2.52c.455-.016.531.684.558 1.051a4.811 4.811 0 0 1 1.599-.987 5.228 5.228 0 0 1 1.817-.32c.482.002.96.084 1.418.243a3.55 3.55 0 0 1 1.407.895c.398.409.7.91.883 1.464.242.659.363 1.51.363 2.552v7.616c0 .154-.064.231-.194.231h-2.932c-.139.021-.262-.109-.242-.256v-7.283a3.371 3.371 0 0 0-.218-1.308c-.636-1.574-2.7-1.229-3.683-.257v8.873c0 .154-.065.231-.194.231h-2.956c-.126.02-.236-.098-.219-.23Z"/></svg>
